img/next.svg

<svg width="21" height="33" viewBox="0 0 21 33" fill="none" xmlns="http://www.w3.org/2000/svg">
<path d="M19.875 17.9102C20.7539 17.0312 20.7539 15.5664 19.875 14.5898L6.59375 1.30859C5.61719 0.429688 4.15234 0.429688 3.27344 1.30859L1.02734 3.55469C0.148438 4.53125 0.148438 5.99609 1.02734 6.875L10.5 16.3477L1.02734 25.7227C0.148438 26.6016 0.148438 28.0664 1.02734 29.043L3.27344 31.1914C4.15234 32.168 5.61719 32.168 6.59375 31.1914L19.875 17.9102Z" fill="#A1A1A1"/>
</svg>

<svg width="21" height="33" fill="none" xmlns="http://www.w3.org/2000/svg"><path d="M19.875 17.91c.879-.879.879-2.344 0-3.32L6.594 1.309c-.977-.88-2.442-.88-3.32 0L1.026 3.555c-.879.976-.879 2.441 0 3.32l9.473 9.473-9.473 9.375c-.879.879-.879 2.343 0 3.32l2.246 2.148c.88.977 2.344.977 3.32 0l13.282-13.28z" fill="#A1A1A1"/></svg>
